X:1
T:Title
%%score { 1 | 2 }
L:1/8
Q:1/4=212
M:3/2
K:F
V:1 treble nm="Grand Piano"
V:2 bass 
V:1
 E4 D4 C4 | F8 F4 | [DF]8 E4 | F12 | A4 [FB]4 [Fc]4 | [Fd]8 [Ec]4 | [FA]8 [F=B]4 | [Ec]12 | %8
w: Victoria,~Lady~Carbery * *||||||||
 [Fc]4 [FA]4 [Fc]4 | [B,FB]8 [DFB]4 | [DF=B]8 [Fd]4 | [CEc]12 | [CFA]4[K:bass] [G,B,E]4 [F,CF]4 | %13
w: |||||
 [F,B,D]8[K:treble] [DA]4 | [EA]8 [EG]4 | F12 |] %16
w: |||
V:2
 [C,G,C]4 [D,G,B,]4 [E,B,]4 | [F,A,C]8 [D,A,]4 | [B,,B,]8 [C,G,C]4 | [F,A,C]12 | %4
 [F,CF]4 [D,B,]4 [C,A,]4 | [B,,B,]8 [C,G,]4 | [D,F,]8 [D,F,]4 | [C,G,]12 | %8
 [_E,A,]4 [E,C]4 [E,A,]4 | D,8 B,,4 | G,,8 [G,=B,]4 | C,12 | F,,4 G,,4 A,,4 | B,,8 [=B,,F,]4 | %14
 [C,C]8 [C,B,]4 | [F,A,]12 |] %16

